web-magabank/image/header/logo.svg

<svg width="212" height="36" viewBox="0 0 212 36" fill="none" xmlns="http://www.w3.org/2000/svg">
<path d="M40.2224 18.0479L31.3608 0.324707H26.8945L20.3015 13.5817L13.7085 0.324707H9.24222L3.99615 10.8168L0.380615 18.0479L9.24222 35.7711H13.7085L4.84686 18.0479L7.04454 13.6526L18.1038 35.7002H22.4992L9.24222 9.18631L11.4399 4.79096L18.1038 18.0479L26.9654 35.7711H31.4317L40.2224 18.0479ZM22.5701 18.0479L29.1631 4.79096L35.7561 18.0479L29.1631 31.3049L22.5701 18.0479Z" fill="white"/>
<path d="M78.5755 16.9138V25.9881H72.975V17.7645C72.975 15.4959 72.0534 14.5034 70.5646 14.5034C68.9341 14.5034 67.7998 15.5668 67.7998 18.0481V25.9172H62.1993V17.7645C62.1993 15.4959 61.2777 14.5034 59.7889 14.5034C58.1584 14.5034 56.9532 15.5668 56.9532 18.0481V25.9172H51.3527V10.1081H56.6696V11.8095C57.8748 10.5334 59.5762 9.89539 61.4194 9.89539C63.6171 9.89539 65.4603 10.6752 66.5237 12.3766C67.7998 10.817 69.7848 9.89539 72.0534 9.89539C75.8107 9.8245 78.5755 11.9513 78.5755 16.9138Z" fill="white"/>
<path d="M97.0076 17.1264V25.988H91.8324V23.9321C91.0526 25.4918 89.4221 26.2716 87.1535 26.2716C83.3253 26.2716 81.1985 24.1448 81.1985 21.38C81.1985 18.4734 83.3253 16.6302 88.2878 16.6302H91.478C91.4071 14.9996 90.2728 14.078 88.0751 14.078C86.5155 14.078 84.814 14.5743 83.7506 15.425L81.9074 11.6677C83.7506 10.4625 86.4446 9.82446 88.9258 9.82446C94.0301 9.82446 97.0076 12.093 97.0076 17.1264ZM91.4071 20.8837V19.5368H88.9967C87.2244 19.5368 86.5863 20.1748 86.5863 21.1673C86.5863 22.0889 87.3662 22.7979 88.6422 22.7979C89.9183 22.727 90.9817 22.1598 91.4071 20.8837Z" fill="white"/>
<path d="M117.85 10.1081V23.0815C117.85 29.1074 114.447 31.9431 108.492 31.9431C105.444 31.9431 102.537 31.2341 100.623 29.8872L102.679 25.9881C104.026 27.0515 106.153 27.6895 108.067 27.6895C111.044 27.6895 112.32 26.3425 112.32 23.8613V23.365C111.257 24.6411 109.627 25.2082 107.571 25.2082C103.317 25.2082 99.7724 22.2307 99.7724 17.5518C99.7724 12.8729 103.317 9.89539 107.571 9.89539C109.768 9.89539 111.47 10.6043 112.533 12.0931V10.1081H117.85ZM112.32 17.4809C112.32 15.5668 110.832 14.2198 108.847 14.2198C106.862 14.2198 105.373 15.4959 105.373 17.4809C105.373 19.395 106.862 20.742 108.847 20.742C110.832 20.742 112.32 19.395 112.32 17.4809Z" fill="white"/>
<path d="M136.353 17.1264V25.988H131.178V23.9321C130.398 25.4918 128.768 26.2716 126.499 26.2716C122.671 26.2716 120.544 24.1448 120.544 21.38C120.544 18.4734 122.671 16.6302 127.633 16.6302H130.823C130.753 14.9996 129.618 14.078 127.421 14.078C125.861 14.078 124.16 14.5743 123.096 15.425L121.253 11.6677C123.096 10.4625 125.79 9.82446 128.271 9.82446C133.376 9.82446 136.353 12.093 136.353 17.1264ZM130.753 20.8837V19.5368H128.342C126.57 19.5368 125.932 20.1748 125.932 21.1673C125.932 22.0889 126.712 22.7979 127.988 22.7979C129.264 22.727 130.327 22.1598 130.753 20.8837Z" fill="white"/>
<path d="M156.416 18.3318C156.416 22.9398 153.155 26.13 148.83 26.13C146.065 26.13 143.726 24.7831 142.521 22.3727V25.9882H141.103V4.22412H142.592V14.1491C143.797 11.8805 146.136 10.5336 148.83 10.5336C153.155 10.5336 156.416 13.7238 156.416 18.3318ZM154.998 18.3318C154.998 14.5036 152.304 11.8805 148.83 11.8805C145.286 11.8805 142.663 14.5036 142.663 18.3318C142.663 22.16 145.286 24.783 148.83 24.783C152.304 24.783 154.998 22.16 154.998 18.3318Z" fill="white"/>
<path d="M172.012 16.2759V25.9882H170.594V23.2943C169.602 25.0666 167.759 26.13 165.065 26.13C161.662 26.13 159.535 24.3577 159.535 21.7346C159.535 19.3952 161.024 17.4811 165.277 17.4811H170.523V16.2759C170.523 13.4402 168.964 11.8805 165.986 11.8805C163.86 11.8805 161.945 12.6604 160.74 13.7946L160.031 12.7312C161.591 11.3843 163.789 10.5336 166.199 10.5336C169.885 10.5336 172.012 12.5186 172.012 16.2759ZM170.523 21.4511V18.6154H165.277C162.087 18.6154 161.024 19.9623 161.024 21.6638C161.024 23.6488 162.583 24.9248 165.277 24.9248C167.83 24.9248 169.602 23.6487 170.523 21.4511Z" fill="white"/>
<path d="M191.72 17.0556V25.9881H190.232V17.1265C190.232 13.6527 188.389 11.8804 185.269 11.8804C181.654 11.8804 179.456 14.2199 179.456 17.8354V25.9881H178.038V10.6752H179.456V14.0072C180.449 11.8804 182.646 10.6043 185.553 10.6043C189.239 10.5334 191.72 12.7311 191.72 17.0556Z" fill="white"/>
<path d="M203.205 17.7647L199.235 21.3802V25.9173H197.746V4.22412H199.235V19.6079L209.018 10.6754H210.862L204.269 16.843L211.5 25.9882H209.656L203.205 17.7647Z" fill="white"/>
</svg>

<svg width="212" height="36" fill="none" xmlns="http://www.w3.org/2000/svg"><path d="M40.222 18.048L31.361.325h-4.466l-6.593 13.257L13.709.325H9.242L3.996 10.817l-3.615 7.23 8.861 17.724h4.466L4.848 18.048l2.198-4.395L18.104 35.7h4.395L9.242 9.186l2.198-4.395 6.664 13.257 8.861 17.723h4.467l8.79-17.723zm-17.652 0L29.163 4.79l6.593 13.257-6.593 13.257-6.593-13.257zM78.576 16.914v9.074h-5.601v-8.223c0-2.27-.922-3.262-2.41-3.262-1.63 0-2.765 1.064-2.765 3.545v7.87h-5.6v-8.153c0-2.27-.922-3.262-2.411-3.262-1.63 0-2.836 1.064-2.836 3.545v7.87h-5.6v-15.81h5.317v1.701c1.205-1.276 2.906-1.914 4.75-1.914 2.197 0 4.04.78 5.104 2.482 1.276-1.56 3.26-2.482 5.53-2.482 3.757-.07 6.522 2.056 6.522 7.019zM97.008 17.126v8.862h-5.176v-2.056c-.78 1.56-2.41 2.34-4.678 2.34-3.829 0-5.956-2.127-5.956-4.892 0-2.907 2.127-4.75 7.09-4.75h3.19c-.07-1.63-1.205-2.552-3.403-2.552-1.56 0-3.261.496-4.324 1.347l-1.844-3.757c1.844-1.205 4.538-1.844 7.019-1.844 5.104 0 8.082 2.269 8.082 7.302zm-5.6 3.758v-1.347h-2.411c-1.773 0-2.41.638-2.41 1.63 0 .922.78 1.63 2.055 1.63 1.276-.07 2.34-.637 2.765-1.913zM117.85 10.108v12.973c0 6.026-3.403 8.862-9.358 8.862-3.048 0-5.955-.709-7.869-2.056l2.056-3.899c1.347 1.064 3.474 1.701 5.388 1.701 2.977 0 4.253-1.346 4.253-3.828v-.496c-1.063 1.276-2.693 1.843-4.749 1.843-4.254 0-7.799-2.977-7.799-7.656 0-4.68 3.545-7.657 7.799-7.657 2.197 0 3.899.71 4.962 2.198v-1.985h5.317zm-5.53 7.373c0-1.914-1.488-3.261-3.473-3.261-1.985 0-3.474 1.276-3.474 3.26 0 1.915 1.489 3.262 3.474 3.262s3.473-1.347 3.473-3.261zM136.353 17.126v8.862h-5.175v-2.056c-.78 1.56-2.41 2.34-4.679 2.34-3.828 0-5.955-2.127-5.955-4.892 0-2.907 2.127-4.75 7.089-4.75h3.19c-.07-1.63-1.205-2.552-3.402-2.552-1.56 0-3.261.496-4.325 1.347l-1.843-3.757c1.843-1.205 4.537-1.844 7.018-1.844 5.105 0 8.082 2.269 8.082 7.302zm-5.6 3.758v-1.347h-2.411c-1.772 0-2.41.638-2.41 1.63 0 .922.78 1.63 2.056 1.63 1.276-.07 2.339-.637 2.765-1.913zM156.416 18.332c0 4.608-3.261 7.798-7.586 7.798-2.765 0-5.104-1.347-6.309-3.757v3.615h-1.418V4.224h1.489v9.925c1.205-2.268 3.544-3.615 6.238-3.615 4.325 0 7.586 3.19 7.586 7.798zm-1.418 0c0-3.828-2.694-6.452-6.168-6.452-3.544 0-6.167 2.624-6.167 6.452s2.623 6.451 6.167 6.451c3.474 0 6.168-2.623 6.168-6.451zM172.012 16.276v9.712h-1.418v-2.694c-.992 1.773-2.835 2.836-5.529 2.836-3.403 0-5.53-1.772-5.53-4.395 0-2.34 1.489-4.254 5.742-4.254h5.246v-1.205c0-2.836-1.559-4.396-4.537-4.396-2.126 0-4.041.78-5.246 1.915l-.709-1.064c1.56-1.347 3.758-2.197 6.168-2.197 3.686 0 5.813 1.985 5.813 5.742zm-1.489 5.175v-2.836h-5.246c-3.19 0-4.253 1.347-4.253 3.049 0 1.985 1.559 3.26 4.253 3.26 2.553 0 4.325-1.275 5.246-3.473zM191.72 17.056v8.932h-1.488v-8.861c0-3.474-1.843-5.247-4.963-5.247-3.615 0-5.813 2.34-5.813 5.955v8.153h-1.418V10.675h1.418v3.332c.993-2.127 3.19-3.403 6.097-3.403 3.686-.07 6.167 2.127 6.167 6.452zM203.205 17.765l-3.97 3.615v4.537h-1.489V4.224h1.489v15.384l9.783-8.933h1.844l-6.593 6.168 7.231 9.145h-1.844l-6.451-8.223z" fill="#fff"/></svg>
